;fileName:20x20x20.STL #0
;machineType:default
;estimatedPrintTime:5398.15
;volume:8
;resin:normal
;weight:8.8
;price:0.264
;layerHeight:0.05
;resolutionX:1440
;resolutionY:2560
;machineX:68.04
;machineY:120.96
;machineZ:150
;projectType:LCD_mirror
;transitionLayerCount:0
;transitionLayerType:0
;normalExposureTime:6
;bottomLayExposureTime:50
;bottomLayerExposureTime:50
;normalDropSpeed:150
;normalLayerLiftHeight:5
;zSlowUpDistance:0
;normalLayerLiftSpeed:65
;bottomLayCount:8
;bottomLayerCount:8
;shrinkageX:100
;shrinkageY:100
;shrinkageZ:100
;mirror:1
;totalLayer:400
;bottomLayerLiftHeight:5
;bottomLayerLiftSpeed:65
;bottomLightOffTime:0
;lightOffTime:0
;START_GCODE_BEGIN
G21;
G90;
M106 S0;
G28 Z0;

;START_GCODE_END

;LAYER_START:0
;currPos:0.05
M6054 "1.png";show Image
G0 Z5.05 F65;
G0 Z0.05 F150;
G4 P0;
M106 S255;light on
G4 P50000;
M106 S0; light off

;LAYER_END

;LAYER_START:1
;currPos:0.1
M6054 "2.png";show Image
G0 Z5.1 F65;
G0 Z0.1 F150;
G4 P0;
M106 S255;light on
G4 P50000;
M106 S0; light off

;LAYER_END

;LAYER_START:2
;currPos:0.15
M6054 "3.png";show Image
G0 Z5.15 F65;
G0 Z0.15 F150;
G4 P0;
M106 S255;light on
G4 P50000;
M106 S0; light off

;LAYER_END

;LAYER_START:3
;currPos:0.2
M6054 "4.png";show Image
G0 Z5.2 F65;
G0 Z0.2 F150;
G4 P0;
M106 S255;light on
G4 P50000;
M106 S0; light off

;LAYER_END

;LAYER_START:4
;currPos:0.25
M6054 "5.png";show Image
G0 Z5.25 F65;
G0 Z0.25 F150;
G4 P0;
M106 S255;light on
G4 P50000;
M106 S0; light off

;LAYER_END

;LAYER_START:5
;currPos:0.3
M6054 "6.png";show Image
G0 Z5.3 F65;
G0 Z0.3 F150;
G4 P0;
M106 S255;light on
G4 P50000;
M106 S0; light off

;LAYER_END

;LAYER_START:6
;currPos:0.35
M6054 "7.png";show Image
G0 Z5.35 F65;
G0 Z0.35 F150;
G4 P0;
M106 S255;light on
G4 P50000;
M106 S0; light off

;LAYER_END

;LAYER_START:7
;currPos:0.4
M6054 "8.png";show Image
G0 Z5.4 F65;
G0 Z0.4 F150;
G4 P0;
M106 S255;light on
G4 P50000;
M106 S0; light off

;LAYER_END

;LAYER_START:8
;currPos:0.45
M6054 "9.png";show Image
G0 Z5.45 F65;
G0 Z0.45 F150;
G4 P0;
M106 S255;light on
G4 P6000;
M106 S0; light off

;LAYER_END

;LAYER_START:9
;currPos:0.5
M6054 "10.png";show Image
G0 Z5.5 F65;
G0 Z0.5 F150;
G4 P0;
M106 S255;light on
G4 P6000;
M106 S0; light off

;LAYER_END

;LAYER_START:10
;currPos:0.55
M6054 "11.png";show Image
G0 Z5.55 F65;
G0 Z0.55 F150;
G4 P0;
M106 S255;light on
G4 P6000;
M106 S0; light off

;LAYER_END

;LAYER_START:11
;currPos:0.6
M6054 "12.png";show Image
G0 Z5.6 F65;
G0 Z0.6 F150;
G4 P0;
M106 S255;light on
G4 P6000;
M106 S0; light off

;LAYER_END

;LAYER_START:12
;currPos:0.65
M6054 "13.png";show Image
G0 Z5.65 F65;
G0 Z0.65 F150;
G4 P0;
M106 S255;light on
G4 P6000;
M106 S0; light off

;LAYER_END

;LAYER_START:13
;currPos:0.7
M6054 "14.png";show Image
G0 Z5.7 F65;
G0 Z0.7 F150;
G4 P0;
M106 S255;light on
G4 P6000;
M106 S0; light off

;LAYER_END

;LAYER_START:14
;currPos:0.75
M6054 "15.png";show Image
G0 Z5.75 F65;
G0 Z0.75 F150;
G4 P0;
M106 S255;light on
G4 P6000;
M106 S0; light off

;LAYER_END

;LAYER_START:15
;currPos:0.8
M6054 "16.png";show Image
G0 Z5.8 F65;
G0 Z0.8 F150;
G4 P0;
M106 S255;light on
G4 P6000;
M106 S0; light off

;LAYER_END

;LAYER_START:16
;currPos:0.85
M6054 "17.png";show Image
G0 Z5.85 F65;
G0 Z0.85 F150;
G4 P0;
M106 S255;light on
G4 P6000;
M106 S0; light off

;LAYER_END

;LAYER_START:17
;currPos:0.9
M6054 "18.png";show Image
G0 Z5.9 F65;
G0 Z0.9 F150;
G4 P0;
M106 S255;light on
G4 P6000;
M106 S0; light off

;LAYER_END

;LAYER_START:18
;currPos:0.95
M6054 "19.png";show Image
G0 Z5.95 F65;
G0 Z0.95 F150;
G4 P0;
M106 S255;light on
G4 P6000;
M106 S0; light off

;LAYER_END

;LAYER_START:19
;currPos:1
M6054 "20.png";show Image
G0 Z6 F65;
G0 Z1 F150;
G4 P0;
M106 S255;light on
G4 P6000;
M106 S0; light off

;LAYER_END

;LAYER_START:20
;currPos:1.05
M6054 "21.png";show Image
G0 Z6.05 F65;
G0 Z1.05 F150;
G4 P0;
M106 S255;light on
G4 P6000;
M106 S0; light off

;LAYER_END

;LAYER_START:21
;currPos:1.1
M6054 "22.png";show Image
G0 Z6.1 F65;
G0 Z1.1 F150;
G4 P0;
M106 S255;light on
G4 P6000;
M106 S0; light off

;LAYER_END

;LAYER_START:22
;currPos:1.15
M6054 "23.png";show Image
G0 Z6.15 F65;
G0 Z1.15 F150;
G4 P0;
M106 S255;light on
G4 P6000;
M106 S0; light off

;LAYER_END

;LAYER_START:23
;currPos:1.2
M6054 "24.png";show Image
G0 Z6.2 F65;
G0 Z1.2 F150;
G4 P0;
M106 S255;light on
G4 P6000;
M106 S0; light off

;LAYER_END

;LAYER_START:24
;currPos:1.25
M6054 "25.png";show Image
G0 Z6.25 F65;
G0 Z1.25 F150;
G4 P0;
M106 S255;light on
G4 P6000;
M106 S0; light off

;LAYER_END

;LAYER_START:25
;currPos:1.3
M6054 "26.png";show Image
G0 Z6.3 F65;
G0 Z1.3 F150;
G4 P0;
M106 S255;light on
G4 P6000;
M106 S0; light off

;LAYER_END

;LAYER_START:26
;currPos:1.35
M6054 "27.png";show Image
G0 Z6.35 F65;
G0 Z1.35 F150;
G4 P0;
M106 S255;light on
G4 P6000;
M106 S0; light off

;LAYER_END

;LAYER_START:27
;currPos:1.4
M6054 "28.png";show Image
G0 Z6.4 F65;
G0 Z1.4 F150;
G4 P0;
M106 S255;light on
G4 P6000;
M106 S0; light off

;LAYER_END

;LAYER_START:28
;currPos:1.45
M6054 "29.png";show Image
G0 Z6.45 F65;
G0 Z1.45 F150;
G4 P0;
M106 S255;light on
G4 P6000;
M106 S0; light off

;LAYER_END

;LAYER_START:29
;currPos:1.5
M6054 "30.png";show Image
G0 Z6.5 F65;
G0 Z1.5 F150;
G4 P0;
M106 S255;light on
G4 P6000;
M106 S0; light off

;LAYER_END

;LAYER_START:30
;currPos:1.55
M6054 "31.png";show Image
G0 Z6.55 F65;
G0 Z1.55 F150;
G4 P0;
M106 S255;light on
G4 P6000;
M106 S0; light off

;LAYER_END

;LAYER_START:31
;currPos:1.6
M6054 "32.png";show Image
G0 Z6.6 F65;
G0 Z1.6 F150;
G4 P0;
M106 S255;light on
G4 P6000;
M106 S0; light off

;LAYER_END

;LAYER_START:32
;currPos:1.65
M6054 "33.png";show Image
G0 Z6.65 F65;
G0 Z1.65 F150;
G4 P0;
M106 S255;light on
G4 P6000;
M106 S0; light off

;LAYER_END

;LAYER_START:33
;currPos:1.7
M6054 "34.png";show Image
G0 Z6.7 F65;
G0 Z1.7 F150;
G4 P0;
M106 S255;light on
G4 P6000;
M106 S0; light off

;LAYER_END

;LAYER_START:34
;currPos:1.75
M6054 "35.png";show Image
G0 Z6.75 F65;
G0 Z1.75 F150;
G4 P0;
M106 S255;light on
G4 P6000;
M106 S0; light off

;LAYER_END

;LAYER_START:35
;currPos:1.8
M6054 "36.png";show Image
G0 Z6.8 F65;
G0 Z1.8 F150;
G4 P0;
M106 S255;light on
G4 P6000;
M106 S0; light off

;LAYER_END

;LAYER_START:36
;currPos:1.85
M6054 "37.png";show Image
G0 Z6.85 F65;
G0 Z1.85 F150;
G4 P0;
M106 S255;light on
G4 P6000;
M106 S0; light off

;LAYER_END

;LAYER_START:37
;currPos:1.9
M6054 "38.png";show Image
G0 Z6.9 F65;
G0 Z1.9 F150;
G4 P0;
M106 S255;light on
G4 P6000;
M106 S0; light off

;LAYER_END

;LAYER_START:38
;currPos:1.95
M6054 "39.png";show Image
G0 Z6.95 F65;
G0 Z1.95 F150;
G4 P0;
M106 S255;light on
G4 P6000;
M106 S0; light off

;LAYER_END

;LAYER_START:39
;currPos:2
M6054 "40.png";show Image
G0 Z7 F65;
G0 Z2 F150;
G4 P0;
M106 S255;light on
G4 P6000;
M106 S0; light off

;LAYER_END

;LAYER_START:40
;currPos:2.05
M6054 "41.png";show Image
G0 Z7.05 F65;
G0 Z2.05 F150;
G4 P0;
M106 S255;light on
G4 P6000;
M106 S0; light off

;LAYER_END

;LAYER_START:41
;currPos:2.1
M6054 "42.png";show Image
G0 Z7.1 F65;
G0 Z2.1 F150;
G4 P0;
M106 S255;light on
G4 P6000;
M106 S0; light off

;LAYER_END

;LAYER_START:42
;currPos:2.15
M6054 "43.png";show Image
G0 Z7.15 F65;
G0 Z2.15 F150;
G4 P0;
M106 S255;light on
G4 P6000;
M106 S0; light off

;LAYER_END

;LAYER_START:43
;currPos:2.2
M6054 "44.png";show Image
G0 Z7.2 F65;
G0 Z2.2 F150;
G4 P0;
M106 S255;light on
G4 P6000;
M106 S0; light off

;LAYER_END

;LAYER_START:44
;currPos:2.25
M6054 "45.png";show Image
G0 Z7.25 F65;
G0 Z2.25 F150;
G4 P0;
M106 S255;light on
G4 P6000;
M106 S0; light off

;LAYER_END

;LAYER_START:45
;currPos:2.3
M6054 "46.png";show Image
G0 Z7.3 F65;
G0 Z2.3 F150;
G4 P0;
M106 S255;light on
G4 P6000;
M106 S0; light off

;LAYER_END

;LAYER_START:46
;currPos:2.35
M6054 "47.png";show Image
G0 Z7.35 F65;
G0 Z2.35 F150;
G4 P0;
M106 S255;light on
G4 P6000;
M106 S0; light off

;LAYER_END

;LAYER_START:47
;currPos:2.4
M6054 "48.png";show Image
G0 Z7.4 F65;
G0 Z2.4 F150;
G4 P0;
M106 S255;light on
G4 P6000;
M106 S0; light off

;LAYER_END

;LAYER_START:48
;currPos:2.45
M6054 "49.png";show Image
G0 Z7.45 F65;
G0 Z2.45 F150;
G4 P0;
M106 S255;light on
G4 P6000;
M106 S0; light off

;LAYER_END

;LAYER_START:49
;currPos:2.5
M6054 "50.png";show Image
G0 Z7.5 F65;
G0 Z2.5 F150;
G4 P0;
M106 S255;light on
G4 P6000;
M106 S0; light off

;LAYER_END

;LAYER_START:50
;currPos:2.55
M6054 "51.png";show Image
G0 Z7.55 F65;
G0 Z2.55 F150;
G4 P0;
M106 S255;light on
G4 P6000;
M106 S0; light off

;LAYER_END

;LAYER_START:51
;currPos:2.6
M6054 "52.png";show Image
G0 Z7.6 F65;
G0 Z2.6 F150;
G4 P0;
M106 S255;light on
G4 P6000;
M106 S0; light off

;LAYER_END

;LAYER_START:52
;currPos:2.65
M6054 "53.png";show Image
G0 Z7.65 F65;
G0 Z2.65 F150;
G4 P0;
M106 S255;light on
G4 P6000;
M106 S0; light off

;LAYER_END

;LAYER_START:53
;currPos:2.7
M6054 "54.png";show Image
G0 Z7.7 F65;
G0 Z2.7 F150;
G4 P0;
M106 S255;light on
G4 P6000;
M106 S0; light off

;LAYER_END

;LAYER_START:54
;currPos:2.75
M6054 "55.png";show Image
G0 Z7.75 F65;
G0 Z2.75 F150;
G4 P0;
M106 S255;light on
G4 P6000;
M106 S0; light off

;LAYER_END

;LAYER_START:55
;currPos:2.8
M6054 "56.png";show Image
G0 Z7.8 F65;
G0 Z2.8 F150;
G4 P0;
M106 S255;light on
G4 P6000;
M106 S0; light off

;LAYER_END

;LAYER_START:56
;currPos:2.85
M6054 "57.png";show Image
G0 Z7.85 F65;
G0 Z2.85 F150;
G4 P0;
M106 S255;light on
G4 P6000;
M106 S0; light off

;LAYER_END

;LAYER_START:57
;currPos:2.9
M6054 "58.png";show Image
G0 Z7.9 F65;
G0 Z2.9 F150;
G4 P0;
M106 S255;light on
G4 P6000;
M106 S0; light off

;LAYER_END

;LAYER_START:58
;currPos:2.95
M6054 "59.png";show Image
G0 Z7.95 F65;
G0 Z2.95 F150;
G4 P0;
M106 S255;light on
G4 P6000;
M106 S0; light off

;LAYER_END

;LAYER_START:59
;currPos:3
M6054 "60.png";show Image
G0 Z8 F65;
G0 Z3 F150;
G4 P0;
M106 S255;light on
G4 P6000;
M106 S0; light off

;LAYER_END

;LAYER_START:60
;currPos:3.05
M6054 "61.png";show Image
G0 Z8.05 F65;
G0 Z3.05 F150;
G4 P0;
M106 S255;light on
G4 P6000;
M106 S0; light off

;LAYER_END

;LAYER_START:61
;currPos:3.1
M6054 "62.png";show Image
G0 Z8.1 F65;
G0 Z3.1 F150;
G4 P0;
M106 S255;light on
G4 P6000;
M106 S0; light off

;LAYER_END

;LAYER_START:62
;currPos:3.15
M6054 "63.png";show Image
G0 Z8.15 F65;
G0 Z3.15 F150;
G4 P0;
M106 S255;light on
G4 P6000;
M106 S0; light off

;LAYER_END

;LAYER_START:63
;currPos:3.2
M6054 "64.png";show Image
G0 Z8.2 F65;
G0 Z3.2 F150;
G4 P0;
M106 S255;light on
G4 P6000;
M106 S0; light off

;LAYER_END

;LAYER_START:64
;currPos:3.25
M6054 "65.png";show Image
G0 Z8.25 F65;
G0 Z3.25 F150;
G4 P0;
M106 S255;light on
G4 P6000;
M106 S0; light off

;LAYER_END

;LAYER_START:65
;currPos:3.3
M6054 "66.png";show Image
G0 Z8.3 F65;
G0 Z3.3 F150;
G4 P0;
M106 S255;light on
G4 P6000;
M106 S0; light off

;LAYER_END

;LAYER_START:66
;currPos:3.35
M6054 "67.png";show Image
G0 Z8.35 F65;
G0 Z3.35 F150;
G4 P0;
M106 S255;light on
G4 P6000;
M106 S0; light off

;LAYER_END

;LAYER_START:67
;currPos:3.4
M6054 "68.png";show Image
G0 Z8.4 F65;
G0 Z3.4 F150;
G4 P0;
M106 S255;light on
G4 P6000;
M106 S0; light off

;LAYER_END

;LAYER_START:68
;currPos:3.45
M6054 "69.png";show Image
G0 Z8.45 F65;
G0 Z3.45 F150;
G4 P0;
M106 S255;light on
G4 P6000;
M106 S0; light off

;LAYER_END

;LAYER_START:69
;currPos:3.5
M6054 "70.png";show Image
G0 Z8.5 F65;
G0 Z3.5 F150;
G4 P0;
M106 S255;light on
G4 P6000;
M106 S0; light off

;LAYER_END

;LAYER_START:70
;currPos:3.55
M6054 "71.png";show Image
G0 Z8.55 F65;
G0 Z3.55 F150;
G4 P0;
M106 S255;light on
G4 P6000;
M106 S0; light off

;LAYER_END

;LAYER_START:71
;currPos:3.6
M6054 "72.png";show Image
G0 Z8.6 F65;
G0 Z3.6 F150;
G4 P0;
M106 S255;light on
G4 P6000;
M106 S0; light off

;LAYER_END

;LAYER_START:72
;currPos:3.65
M6054 "73.png";show Image
G0 Z8.65 F65;
G0 Z3.65 F150;
G4 P0;
M106 S255;light on
G4 P6000;
M106 S0; light off

;LAYER_END

;LAYER_START:73
;currPos:3.7
M6054 "74.png";show Image
G0 Z8.7 F65;
G0 Z3.7 F150;
G4 P0;
M106 S255;light on
G4 P6000;
M106 S0; light off

;LAYER_END

;LAYER_START:74
;currPos:3.75
M6054 "75.png";show Image
G0 Z8.75 F65;
G0 Z3.75 F150;
G4 P0;
M106 S255;light on
G4 P6000;
M106 S0; light off

;LAYER_END

;LAYER_START:75
;currPos:3.8
M6054 "76.png";show Image
G0 Z8.8 F65;
G0 Z3.8 F150;
G4 P0;
M106 S255;light on
G4 P6000;
M106 S0; light off

;LAYER_END

;LAYER_START:76
;currPos:3.85
M6054 "77.png";show Image
G0 Z8.85 F65;
G0 Z3.85 F150;
G4 P0;
M106 S255;light on
G4 P6000;
M106 S0; light off

;LAYER_END

;LAYER_START:77
;currPos:3.9
M6054 "78.png";show Image
G0 Z8.9 F65;
G0 Z3.9 F150;
G4 P0;
M106 S255;light on
G4 P6000;
M106 S0; light off

;LAYER_END

;LAYER_START:78
;currPos:3.95
M6054 "79.png";show Image
G0 Z8.95 F65;
G0 Z3.95 F150;
G4 P0;
M106 S255;light on
G4 P6000;
M106 S0; light off

;LAYER_END

;LAYER_START:79
;currPos:4
M6054 "80.png";show Image
G0 Z9 F65;
G0 Z4 F150;
G4 P0;
M106 S255;light on
G4 P6000;
M106 S0; light off

;LAYER_END

;LAYER_START:80
;currPos:4.05
M6054 "81.png";show Image
G0 Z9.05 F65;
G0 Z4.05 F150;
G4 P0;
M106 S255;light on
G4 P6000;
M106 S0; light off

;LAYER_END

;LAYER_START:81
;currPos:4.1
M6054 "82.png";show Image
G0 Z9.1 F65;
G0 Z4.1 F150;
G4 P0;
M106 S255;light on
G4 P6000;
M106 S0; light off

;LAYER_END

;LAYER_START:82
;currPos:4.15
M6054 "83.png";show Image
G0 Z9.15 F65;
G0 Z4.15 F150;
G4 P0;
M106 S255;light on
G4 P6000;
M106 S0; light off

;LAYER_END

;LAYER_START:83
;currPos:4.2
M6054 "84.png";show Image
G0 Z9.2 F65;
G0 Z4.2 F150;
G4 P0;
M106 S255;light on
G4 P6000;
M106 S0; light off

;LAYER_END

;LAYER_START:84
;currPos:4.25
M6054 "85.png";show Image
G0 Z9.25 F65;
G0 Z4.25 F150;
G4 P0;
M106 S255;light on
G4 P6000;
M106 S0; light off

;LAYER_END

;LAYER_START:85
;currPos:4.3
M6054 "86.png";show Image
G0 Z9.3 F65;
G0 Z4.3 F150;
G4 P0;
M106 S255;light on
G4 P6000;
M106 S0; light off

;LAYER_END

;LAYER_START:86
;currPos:4.35
M6054 "87.png";show Image
G0 Z9.35 F65;
G0 Z4.35 F150;
G4 P0;
M106 S255;light on
G4 P6000;
M106 S0; light off

;LAYER_END

;LAYER_START:87
;currPos:4.4
M6054 "88.png";show Image
G0 Z9.4 F65;
G0 Z4.4 F150;
G4 P0;
M106 S255;light on
G4 P6000;
M106 S0; light off

;LAYER_END

;LAYER_START:88
;currPos:4.45
M6054 "89.png";show Image
G0 Z9.45 F65;
G0 Z4.45 F150;
G4 P0;
M106 S255;light on
G4 P6000;
M106 S0; light off

;LAYER_END

;LAYER_START:89
;currPos:4.5
M6054 "90.png";show Image
G0 Z9.5 F65;
G0 Z4.5 F150;
G4 P0;
M106 S255;light on
G4 P6000;
M106 S0; light off

;LAYER_END

;LAYER_START:90
;currPos:4.55
M6054 "91.png";show Image
G0 Z9.55 F65;
G0 Z4.55 F150;
G4 P0;
M106 S255;light on
G4 P6000;
M106 S0; light off

;LAYER_END

;LAYER_START:91
;currPos:4.6
M6054 "92.png";show Image
G0 Z9.6 F65;
G0 Z4.6 F150;
G4 P0;
M106 S255;light on
G4 P6000;
M106 S0; light off

;LAYER_END

;LAYER_START:92
;currPos:4.65
M6054 "93.png";show Image
G0 Z9.65 F65;
G0 Z4.65 F150;
G4 P0;
M106 S255;light on
G4 P6000;
M106 S0; light off

;LAYER_END

;LAYER_START:93
;currPos:4.7
M6054 "94.png";show Image
G0 Z9.7 F65;
G0 Z4.7 F150;
G4 P0;
M106 S255;light on
G4 P6000;
M106 S0; light off

;LAYER_END

;LAYER_START:94
;currPos:4.75
M6054 "95.png";show Image
G0 Z9.75 F65;
G0 Z4.75 F150;
G4 P0;
M106 S255;light on
G4 P6000;
M106 S0; light off

;LAYER_END

;LAYER_START:95
;currPos:4.8
M6054 "96.png";show Image
G0 Z9.8 F65;
G0 Z4.8 F150;
G4 P0;
M106 S255;light on
G4 P6000;
M106 S0; light off

;LAYER_END

;LAYER_START:96
;currPos:4.85
M6054 "97.png";show Image
G0 Z9.85 F65;
G0 Z4.85 F150;
G4 P0;
M106 S255;light on
G4 P6000;
M106 S0; light off

;LAYER_END

;LAYER_START:97
;currPos:4.9
M6054 "98.png";show Image
G0 Z9.9 F65;
G0 Z4.9 F150;
G4 P0;
M106 S255;light on
G4 P6000;
M106 S0; light off

;LAYER_END

;LAYER_START:98
;currPos:4.95
M6054 "99.png";show Image
G0 Z9.95 F65;
G0 Z4.95 F150;
G4 P0;
M106 S255;light on
G4 P6000;
M106 S0; light off

;LAYER_END

;LAYER_START:99
;currPos:5
M6054 "100.png";show Image
G0 Z10 F65;
G0 Z5 F150;
G4 P0;
M106 S255;light on
G4 P6000;
M106 S0; light off

;LAYER_END

;LAYER_START:100
;currPos:5.05
M6054 "101.png";show Image
G0 Z10.05 F65;
G0 Z5.05 F150;
G4 P0;
M106 S255;light on
G4 P6000;
M106 S0; light off

;LAYER_END

;LAYER_START:101
;currPos:5.1
M6054 "102.png";show Image
G0 Z10.1 F65;
G0 Z5.1 F150;
G4 P0;
M106 S255;light on
G4 P6000;
M106 S0; light off

;LAYER_END

;LAYER_START:102
;currPos:5.15
M6054 "103.png";show Image
G0 Z10.15 F65;
G0 Z5.15 F150;
G4 P0;
M106 S255;light on
G4 P6000;
M106 S0; light off

;LAYER_END

;LAYER_START:103
;currPos:5.2
M6054 "104.png";show Image
G0 Z10.2 F65;
G0 Z5.2 F150;
G4 P0;
M106 S255;light on
G4 P6000;
M106 S0; light off

;LAYER_END

;LAYER_START:104
;currPos:5.25
M6054 "105.png";show Image
G0 Z10.25 F65;
G0 Z5.25 F150;
G4 P0;
M106 S255;light on
G4 P6000;
M106 S0; light off

;LAYER_END

;LAYER_START:105
;currPos:5.3
M6054 "106.png";show Image
G0 Z10.3 F65;
G0 Z5.3 F150;
G4 P0;
M106 S255;light on
G4 P6000;
M106 S0; light off

;LAYER_END

;LAYER_START:106
;currPos:5.35
M6054 "107.png";show Image
G0 Z10.35 F65;
G0 Z5.35 F150;
G4 P0;
M106 S255;light on
G4 P6000;
M106 S0; light off

;LAYER_END

;LAYER_START:107
;currPos:5.4
M6054 "108.png";show Image
G0 Z10.4 F65;
G0 Z5.4 F150;
G4 P0;
M106 S255;light on
G4 P6000;
M106 S0; light off

;LAYER_END

;LAYER_START:108
;currPos:5.45
M6054 "109.png";show Image
G0 Z10.45 F65;
G0 Z5.45 F150;
G4 P0;
M106 S255;light on
G4 P6000;
M106 S0; light off

;LAYER_END

;LAYER_START:109
;currPos:5.5
M6054 "110.png";show Image
G0 Z10.5 F65;
G0 Z5.5 F150;
G4 P0;
M106 S255;light on
G4 P6000;
M106 S0; light off

;LAYER_END

;LAYER_START:110
;currPos:5.55
M6054 "111.png";show Image
G0 Z10.55 F65;
G0 Z5.55 F150;
G4 P0;
M106 S255;light on
G4 P6000;
M106 S0; light off

;LAYER_END

;LAYER_START:111
;currPos:5.6
M6054 "112.png";show Image
G0 Z10.6 F65;
G0 Z5.6 F150;
G4 P0;
M106 S255;light on
G4 P6000;
M106 S0; light off

;LAYER_END

;LAYER_START:112
;currPos:5.65
M6054 "113.png";show Image
G0 Z10.65 F65;
G0 Z5.65 F150;
G4 P0;
M106 S255;light on
G4 P6000;
M106 S0; light off

;LAYER_END

;LAYER_START:113
;currPos:5.7
M6054 "114.png";show Image
G0 Z10.7 F65;
G0 Z5.7 F150;
G4 P0;
M106 S255;light on
G4 P6000;
M106 S0; light off

;LAYER_END

;LAYER_START:114
;currPos:5.75
M6054 "115.png";show Image
G0 Z10.75 F65;
G0 Z5.75 F150;
G4 P0;
M106 S255;light on
G4 P6000;
M106 S0; light off

;LAYER_END

;LAYER_START:115
;currPos:5.8
M6054 "116.png";show Image
G0 Z10.8 F65;
G0 Z5.8 F150;
G4 P0;
M106 S255;light on
G4 P6000;
M106 S0; light off

;LAYER_END

;LAYER_START:116
;currPos:5.85
M6054 "117.png";show Image
G0 Z10.85 F65;
G0 Z5.85 F150;
G4 P0;
M106 S255;light on
G4 P6000;
M106 S0; light off

;LAYER_END

;LAYER_START:117
;currPos:5.9
M6054 "118.png";show Image
G0 Z10.9 F65;
G0 Z5.9 F150;
G4 P0;
M106 S255;light on
G4 P6000;
M106 S0; light off

;LAYER_END

;LAYER_START:118
;currPos:5.95
M6054 "119.png";show Image
G0 Z10.95 F65;
G0 Z5.95 F150;
G4 P0;
M106 S255;light on
G4 P6000;
M106 S0; light off

;LAYER_END

;LAYER_START:119
;currPos:6
M6054 "120.png";show Image
G0 Z11 F65;
G0 Z6 F150;
G4 P0;
M106 S255;light on
G4 P6000;
M106 S0; light off

;LAYER_END

;LAYER_START:120
;currPos:6.05
M6054 "121.png";show Image
G0 Z11.05 F65;
G0 Z6.05 F150;
G4 P0;
M106 S255;light on
G4 P6000;
M106 S0; light off

;LAYER_END

;LAYER_START:121
;currPos:6.1
M6054 "122.png";show Image
G0 Z11.1 F65;
G0 Z6.1 F150;
G4 P0;
M106 S255;light on
G4 P6000;
M106 S0; light off

;LAYER_END

;LAYER_START:122
;currPos:6.15
M6054 "123.png";show Image
G0 Z11.15 F65;
G0 Z6.15 F150;
G4 P0;
M106 S255;light on
G4 P6000;
M106 S0; light off

;LAYER_END

;LAYER_START:123
;currPos:6.2
M6054 "124.png";show Image
G0 Z11.2 F65;
G0 Z6.2 F150;
G4 P0;
M106 S255;light on
G4 P6000;
M106 S0; light off

;LAYER_END

;LAYER_START:124
;currPos:6.25
M6054 "125.png";show Image
G0 Z11.25 F65;
G0 Z6.25 F150;
G4 P0;
M106 S255;light on
G4 P6000;
M106 S0; light off

;LAYER_END

;LAYER_START:125
;currPos:6.3
M6054 "126.png";show Image
G0 Z11.3 F65;
G0 Z6.3 F150;
G4 P0;
M106 S255;light on
G4 P6000;
M106 S0; light off

;LAYER_END

;LAYER_START:126
;currPos:6.35
M6054 "127.png";show Image
G0 Z11.35 F65;
G0 Z6.35 F150;
G4 P0;
M106 S255;light on
G4 P6000;
M106 S0; light off

;LAYER_END

;LAYER_START:127
;currPos:6.4
M6054 "128.png";show Image
G0 Z11.4 F65;
G0 Z6.4 F150;
G4 P0;
M106 S255;light on
G4 P6000;
M106 S0; light off

;LAYER_END

;LAYER_START:128
;currPos:6.45
M6054 "129.png";show Image
G0 Z11.45 F65;
G0 Z6.45 F150;
G4 P0;
M106 S255;light on
G4 P6000;
M106 S0; light off

;LAYER_END

;LAYER_START:129
;currPos:6.5
M6054 "130.png";show Image
G0 Z11.5 F65;
G0 Z6.5 F150;
G4 P0;
M106 S255;light on
G4 P6000;
M106 S0; light off

;LAYER_END

;LAYER_START:130
;currPos:6.55
M6054 "131.png";show Image
G0 Z11.55 F65;
G0 Z6.55 F150;
G4 P0;
M106 S255;light on
G4 P6000;
M106 S0; light off

;LAYER_END

;LAYER_START:131
;currPos:6.6
M6054 "132.png";show Image
G0 Z11.6 F65;
G0 Z6.6 F150;
G4 P0;
M106 S255;light on
G4 P6000;
M106 S0; light off

;LAYER_END

;LAYER_START:132
;currPos:6.65
M6054 "133.png";show Image
G0 Z11.65 F65;
G0 Z6.65 F150;
G4 P0;
M106 S255;light on
G4 P6000;
M106 S0; light off

;LAYER_END

;LAYER_START:133
;currPos:6.7
M6054 "134.png";show Image
G0 Z11.7 F65;
G0 Z6.7 F150;
G4 P0;
M106 S255;light on
G4 P6000;
M106 S0; light off

;LAYER_END

;LAYER_START:134
;currPos:6.75
M6054 "135.png";show Image
G0 Z11.75 F65;
G0 Z6.75 F150;
G4 P0;
M106 S255;light on
G4 P6000;
M106 S0; light off

;LAYER_END

;LAYER_START:135
;currPos:6.8
M6054 "136.png";show Image
G0 Z11.8 F65;
G0 Z6.8 F150;
G4 P0;
M106 S255;light on
G4 P6000;
M106 S0; light off

;LAYER_END

;LAYER_START:136
;currPos:6.85
M6054 "137.png";show Image
G0 Z11.85 F65;
G0 Z6.85 F150;
G4 P0;
M106 S255;light on
G4 P6000;
M106 S0; light off

;LAYER_END

;LAYER_START:137
;currPos:6.9
M6054 "138.png";show Image
G0 Z11.9 F65;
G0 Z6.9 F150;
G4 P0;
M106 S255;light on
G4 P6000;
M106 S0; light off

;LAYER_END

;LAYER_START:138
;currPos:6.95
M6054 "139.png";show Image
G0 Z11.95 F65;
G0 Z6.95 F150;
G4 P0;
M106 S255;light on
G4 P6000;
M106 S0; light off

;LAYER_END

;LAYER_START:139
;currPos:7
M6054 "140.png";show Image
G0 Z12 F65;
G0 Z7 F150;
G4 P0;
M106 S255;light on
G4 P6000;
M106 S0; light off

;LAYER_END

;LAYER_START:140
;currPos:7.05
M6054 "141.png";show Image
G0 Z12.05 F65;
G0 Z7.05 F150;
G4 P0;
M106 S255;light on
G4 P6000;
M106 S0; light off

;LAYER_END

;LAYER_START:141
;currPos:7.1
M6054 "142.png";show Image
G0 Z12.1 F65;
G0 Z7.1 F150;
G4 P0;
M106 S255;light on
G4 P6000;
M106 S0; light off

;LAYER_END

;LAYER_START:142
;currPos:7.15
M6054 "143.png";show Image
G0 Z12.15 F65;
G0 Z7.15 F150;
G4 P0;
M106 S255;light on
G4 P6000;
M106 S0; light off

;LAYER_END

;LAYER_START:143
;currPos:7.2
M6054 "144.png";show Image
G0 Z12.2 F65;
G0 Z7.2 F150;
G4 P0;
M106 S255;light on
G4 P6000;
M106 S0; light off

;LAYER_END

;LAYER_START:144
;currPos:7.25
M6054 "145.png";show Image
G0 Z12.25 F65;
G0 Z7.25 F150;
G4 P0;
M106 S255;light on
G4 P6000;
M106 S0; light off

;LAYER_END

;LAYER_START:145
;currPos:7.3
M6054 "146.png";show Image
G0 Z12.3 F65;
G0 Z7.3 F150;
G4 P0;
M106 S255;light on
G4 P6000;
M106 S0; light off

;LAYER_END

;LAYER_START:146
;currPos:7.35
M6054 "147.png";show Image
G0 Z12.35 F65;
G0 Z7.35 F150;
G4 P0;
M106 S255;light on
G4 P6000;
M106 S0; light off

;LAYER_END

;LAYER_START:147
;currPos:7.4
M6054 "148.png";show Image
G0 Z12.4 F65;
G0 Z7.4 F150;
G4 P0;
M106 S255;light on
G4 P6000;
M106 S0; light off

;LAYER_END

;LAYER_START:148
;currPos:7.45
M6054 "149.png";show Image
G0 Z12.45 F65;
G0 Z7.45 F150;
G4 P0;
M106 S255;light on
G4 P6000;
M106 S0; light off

;LAYER_END

;LAYER_START:149
;currPos:7.5
M6054 "150.png";show Image
G0 Z12.5 F65;
G0 Z7.5 F150;
G4 P0;
M106 S255;light on
G4 P6000;
M106 S0; light off

;LAYER_END

;LAYER_START:150
;currPos:7.55
M6054 "151.png";show Image
G0 Z12.55 F65;
G0 Z7.55 F150;
G4 P0;
M106 S255;light on
G4 P6000;
M106 S0; light off

;LAYER_END

;LAYER_START:151
;currPos:7.6
M6054 "152.png";show Image
G0 Z12.6 F65;
G0 Z7.6 F150;
G4 P0;
M106 S255;light on
G4 P6000;
M106 S0; light off

;LAYER_END

;LAYER_START:152
;currPos:7.65
M6054 "153.png";show Image
G0 Z12.65 F65;
G0 Z7.65 F150;
G4 P0;
M106 S255;light on
G4 P6000;
M106 S0; light off

;LAYER_END

;LAYER_START:153
;currPos:7.7
M6054 "154.png";show Image
G0 Z12.7 F65;
G0 Z7.7 F150;
G4 P0;
M106 S255;light on
G4 P6000;
M106 S0; light off

;LAYER_END

;LAYER_START:154
;currPos:7.75
M6054 "155.png";show Image
G0 Z12.75 F65;
G0 Z7.75 F150;
G4 P0;
M106 S255;light on
G4 P6000;
M106 S0; light off

;LAYER_END

;LAYER_START:155
;currPos:7.8
M6054 "156.png";show Image
G0 Z12.8 F65;
G0 Z7.8 F150;
G4 P0;
M106 S255;light on
G4 P6000;
M106 S0; light off

;LAYER_END

;LAYER_START:156
;currPos:7.85
M6054 "157.png";show Image
G0 Z12.85 F65;
G0 Z7.85 F150;
G4 P0;
M106 S255;light on
G4 P6000;
M106 S0; light off

;LAYER_END

;LAYER_START:157
;currPos:7.9
M6054 "158.png";show Image
G0 Z12.9 F65;
G0 Z7.9 F150;
G4 P0;
M106 S255;light on
G4 P6000;
M106 S0; light off

;LAYER_END

;LAYER_START:158
;currPos:7.95
M6054 "159.png";show Image
G0 Z12.95 F65;
G0 Z7.95 F150;
G4 P0;
M106 S255;light on
G4 P6000;
M106 S0; light off

;LAYER_END

;LAYER_START:159
;currPos:8
M6054 "160.png";show Image
G0 Z13 F65;
G0 Z8 F150;
G4 P0;
M106 S255;light on
G4 P6000;
M106 S0; light off

;LAYER_END

;LAYER_START:160
;currPos:8.05
M6054 "161.png";show Image
G0 Z13.05 F65;
G0 Z8.05 F150;
G4 P0;
M106 S255;light on
G4 P6000;
M106 S0; light off

;LAYER_END

;LAYER_START:161
;currPos:8.1
M6054 "162.png";show Image
G0 Z13.1 F65;
G0 Z8.1 F150;
G4 P0;
M106 S255;light on
G4 P6000;
M106 S0; light off

;LAYER_END

;LAYER_START:162
;currPos:8.15
M6054 "163.png";show Image
G0 Z13.15 F65;
G0 Z8.15 F150;
G4 P0;
M106 S255;light on
G4 P6000;
M106 S0; light off

;LAYER_END

;LAYER_START:163
;currPos:8.2
M6054 "164.png";show Image
G0 Z13.2 F65;
G0 Z8.2 F150;
G4 P0;
M106 S255;light on
G4 P6000;
M106 S0; light off

;LAYER_END

;LAYER_START:164
;currPos:8.25
M6054 "165.png";show Image
G0 Z13.25 F65;
G0 Z8.25 F150;
G4 P0;
M106 S255;light on
G4 P6000;
M106 S0; light off

;LAYER_END

;LAYER_START:165
;currPos:8.3
M6054 "166.png";show Image
G0 Z13.3 F65;
G0 Z8.3 F150;
G4 P0;
M106 S255;light on
G4 P6000;
M106 S0; light off

;LAYER_END

;LAYER_START:166
;currPos:8.35
M6054 "167.png";show Image
G0 Z13.35 F65;
G0 Z8.35 F150;
G4 P0;
M106 S255;light on
G4 P6000;
M106 S0; light off

;LAYER_END

;LAYER_START:167
;currPos:8.4
M6054 "168.png";show Image
G0 Z13.4 F65;
G0 Z8.4 F150;
G4 P0;
M106 S255;light on
G4 P6000;
M106 S0; light off

;LAYER_END

;LAYER_START:168
;currPos:8.45
M6054 "169.png";show Image
G0 Z13.45 F65;
G0 Z8.45 F150;
G4 P0;
M106 S255;light on
G4 P6000;
M106 S0; light off

;LAYER_END

;LAYER_START:169
;currPos:8.5
M6054 "170.png";show Image
G0 Z13.5 F65;
G0 Z8.5 F150;
G4 P0;
M106 S255;light on
G4 P6000;
M106 S0; light off

;LAYER_END

;LAYER_START:170
;currPos:8.55
M6054 "171.png";show Image
G0 Z13.55 F65;
G0 Z8.55 F150;
G4 P0;
M106 S255;light on
G4 P6000;
M106 S0; light off

;LAYER_END

;LAYER_START:171
;currPos:8.6
M6054 "172.png";show Image
G0 Z13.6 F65;
G0 Z8.6 F150;
G4 P0;
M106 S255;light on
G4 P6000;
M106 S0; light off

;LAYER_END

;LAYER_START:172
;currPos:8.65
M6054 "173.png";show Image
G0 Z13.65 F65;
G0 Z8.65 F150;
G4 P0;
M106 S255;light on
G4 P6000;
M106 S0; light off

;LAYER_END

;LAYER_START:173
;currPos:8.7
M6054 "174.png";show Image
G0 Z13.7 F65;
G0 Z8.7 F150;
G4 P0;
M106 S255;light on
G4 P6000;
M106 S0; light off

;LAYER_END

;LAYER_START:174
;currPos:8.75
M6054 "175.png";show Image
G0 Z13.75 F65;
G0 Z8.75 F150;
G4 P0;
M106 S255;light on
G4 P6000;
M106 S0; light off

;LAYER_END

;LAYER_START:175
;currPos:8.8
M6054 "176.png";show Image
G0 Z13.8 F65;
G0 Z8.8 F150;
G4 P0;
M106 S255;light on
G4 P6000;
M106 S0; light off

;LAYER_END

;LAYER_START:176
;currPos:8.85
M6054 "177.png";show Image
G0 Z13.85 F65;
G0 Z8.85 F150;
G4 P0;
M106 S255;light on
G4 P6000;
M106 S0; light off

;LAYER_END

;LAYER_START:177
;currPos:8.9
M6054 "178.png";show Image
G0 Z13.9 F65;
G0 Z8.9 F150;
G4 P0;
M106 S255;light on
G4 P6000;
M106 S0; light off

;LAYER_END

;LAYER_START:178
;currPos:8.95
M6054 "179.png";show Image
G0 Z13.95 F65;
G0 Z8.95 F150;
G4 P0;
M106 S255;light on
G4 P6000;
M106 S0; light off

;LAYER_END

;LAYER_START:179
;currPos:9
M6054 "180.png";show Image
G0 Z14 F65;
G0 Z9 F150;
G4 P0;
M106 S255;light on
G4 P6000;
M106 S0; light off

;LAYER_END

;LAYER_START:180
;currPos:9.05
M6054 "181.png";show Image
G0 Z14.05 F65;
G0 Z9.05 F150;
G4 P0;
M106 S255;light on
G4 P6000;
M106 S0; light off

;LAYER_END

;LAYER_START:181
;currPos:9.1
M6054 "182.png";show Image
G0 Z14.1 F65;
G0 Z9.1 F150;
G4 P0;
M106 S255;light on
G4 P6000;
M106 S0; light off

;LAYER_END

;LAYER_START:182
;currPos:9.15
M6054 "183.png";show Image
G0 Z14.15 F65;
G0 Z9.15 F150;
G4 P0;
M106 S255;light on
G4 P6000;
M106 S0; light off

;LAYER_END

;LAYER_START:183
;currPos:9.2
M6054 "184.png";show Image
G0 Z14.2 F65;
G0 Z9.2 F150;
G4 P0;
M106 S255;light on
G4 P6000;
M106 S0; light off

;LAYER_END

;LAYER_START:184
;currPos:9.25
M6054 "185.png";show Image
G0 Z14.25 F65;
G0 Z9.25 F150;
G4 P0;
M106 S255;light on
G4 P6000;
M106 S0; light off

;LAYER_END

;LAYER_START:185
;currPos:9.3
M6054 "186.png";show Image
G0 Z14.3 F65;
G0 Z9.3 F150;
G4 P0;
M106 S255;light on
G4 P6000;
M106 S0; light off

;LAYER_END

;LAYER_START:186
;currPos:9.35
M6054 "187.png";show Image
G0 Z14.35 F65;
G0 Z9.35 F150;
G4 P0;
M106 S255;light on
G4 P6000;
M106 S0; light off

;LAYER_END

;LAYER_START:187
;currPos:9.4
M6054 "188.png";show Image
G0 Z14.4 F65;
G0 Z9.4 F150;
G4 P0;
M106 S255;light on
G4 P6000;
M106 S0; light off

;LAYER_END

;LAYER_START:188
;currPos:9.45
M6054 "189.png";show Image
G0 Z14.45 F65;
G0 Z9.45 F150;
G4 P0;
M106 S255;light on
G4 P6000;
M106 S0; light off

;LAYER_END

;LAYER_START:189
;currPos:9.5
M6054 "190.png";show Image
G0 Z14.5 F65;
G0 Z9.5 F150;
G4 P0;
M106 S255;light on
G4 P6000;
M106 S0; light off

;LAYER_END

;LAYER_START:190
;currPos:9.55
M6054 "191.png";show Image
G0 Z14.55 F65;
G0 Z9.55 F150;
G4 P0;
M106 S255;light on
G4 P6000;
M106 S0; light off

;LAYER_END

;LAYER_START:191
;currPos:9.6
M6054 "192.png";show Image
G0 Z14.6 F65;
G0 Z9.6 F150;
G4 P0;
M106 S255;light on
G4 P6000;
M106 S0; light off

;LAYER_END

;LAYER_START:192
;currPos:9.65
M6054 "193.png";show Image
G0 Z14.65 F65;
G0 Z9.65 F150;
G4 P0;
M106 S255;light on
G4 P6000;
M106 S0; light off

;LAYER_END

;LAYER_START:193
;currPos:9.7
M6054 "194.png";show Image
G0 Z14.7 F65;
G0 Z9.7 F150;
G4 P0;
M106 S255;light on
G4 P6000;
M106 S0; light off

;LAYER_END

;LAYER_START:194
;currPos:9.75
M6054 "195.png";show Image
G0 Z14.75 F65;
G0 Z9.75 F150;
G4 P0;
M106 S255;light on
G4 P6000;
M106 S0; light off

;LAYER_END

;LAYER_START:195
;currPos:9.8
M6054 "196.png";show Image
G0 Z14.8 F65;
G0 Z9.8 F150;
G4 P0;
M106 S255;light on
G4 P6000;
M106 S0; light off

;LAYER_END

;LAYER_START:196
;currPos:9.85
M6054 "197.png";show Image
G0 Z14.85 F65;
G0 Z9.85 F150;
G4 P0;
M106 S255;light on
G4 P6000;
M106 S0; light off

;LAYER_END

;LAYER_START:197
;currPos:9.9
M6054 "198.png";show Image
G0 Z14.9 F65;
G0 Z9.9 F150;
G4 P0;
M106 S255;light on
G4 P6000;
M106 S0; light off

;LAYER_END

;LAYER_START:198
;currPos:9.95
M6054 "199.png";show Image
G0 Z14.95 F65;
G0 Z9.95 F150;
G4 P0;
M106 S255;light on
G4 P6000;
M106 S0; light off

;LAYER_END

;LAYER_START:199
;currPos:10
M6054 "200.png";show Image
G0 Z15 F65;
G0 Z10 F150;
G4 P0;
M106 S255;light on
G4 P6000;
M106 S0; light off

;LAYER_END

;LAYER_START:200
;currPos:10.05
M6054 "201.png";show Image
G0 Z15.05 F65;
G0 Z10.05 F150;
G4 P0;
M106 S255;light on
G4 P6000;
M106 S0; light off

;LAYER_END

;LAYER_START:201
;currPos:10.1
M6054 "202.png";show Image
G0 Z15.1 F65;
G0 Z10.1 F150;
G4 P0;
M106 S255;light on
G4 P6000;
M106 S0; light off

;LAYER_END

;LAYER_START:202
;currPos:10.15
M6054 "203.png";show Image
G0 Z15.15 F65;
G0 Z10.15 F150;
G4 P0;
M106 S255;light on
G4 P6000;
M106 S0; light off

;LAYER_END

;LAYER_START:203
;currPos:10.2
M6054 "204.png";show Image
G0 Z15.2 F65;
G0 Z10.2 F150;
G4 P0;
M106 S255;light on
G4 P6000;
M106 S0; light off

;LAYER_END

;LAYER_START:204
;currPos:10.25
M6054 "205.png";show Image
G0 Z15.25 F65;
G0 Z10.25 F150;
G4 P0;
M106 S255;light on
G4 P6000;
M106 S0; light off

;LAYER_END

;LAYER_START:205
;currPos:10.3
M6054 "206.png";show Image
G0 Z15.3 F65;
G0 Z10.3 F150;
G4 P0;
M106 S255;light on
G4 P6000;
M106 S0; light off

;LAYER_END

;LAYER_START:206
;currPos:10.35
M6054 "207.png";show Image
G0 Z15.35 F65;
G0 Z10.35 F150;
G4 P0;
M106 S255;light on
G4 P6000;
M106 S0; light off

;LAYER_END

;LAYER_START:207
;currPos:10.4
M6054 "208.png";show Image
G0 Z15.4 F65;
G0 Z10.4 F150;
G4 P0;
M106 S255;light on
G4 P6000;
M106 S0; light off

;LAYER_END

;LAYER_START:208
;currPos:10.45
M6054 "209.png";show Image
G0 Z15.45 F65;
G0 Z10.45 F150;
G4 P0;
M106 S255;light on
G4 P6000;
M106 S0; light off

;LAYER_END

;LAYER_START:209
;currPos:10.5
M6054 "210.png";show Image
G0 Z15.5 F65;
G0 Z10.5 F150;
G4 P0;
M106 S255;light on
G4 P6000;
M106 S0; light off

;LAYER_END

;LAYER_START:210
;currPos:10.55
M6054 "211.png";show Image
G0 Z15.55 F65;
G0 Z10.55 F150;
G4 P0;
M106 S255;light on
G4 P6000;
M106 S0; light off

;LAYER_END

;LAYER_START:211
;currPos:10.6
M6054 "212.png";show Image
G0 Z15.6 F65;
G0 Z10.6 F150;
G4 P0;
M106 S255;light on
G4 P6000;
M106 S0; light off

;LAYER_END

;LAYER_START:212
;currPos:10.65
M6054 "213.png";show Image
G0 Z15.65 F65;
G0 Z10.65 F150;
G4 P0;
M106 S255;light on
G4 P6000;
M106 S0; light off

;LAYER_END

;LAYER_START:213
;currPos:10.7
M6054 "214.png";show Image
G0 Z15.7 F65;
G0 Z10.7 F150;
G4 P0;
M106 S255;light on
G4 P6000;
M106 S0; light off

;LAYER_END

;LAYER_START:214
;currPos:10.75
M6054 "215.png";show Image
G0 Z15.75 F65;
G0 Z10.75 F150;
G4 P0;
M106 S255;light on
G4 P6000;
M106 S0; light off

;LAYER_END

;LAYER_START:215
;currPos:10.8
M6054 "216.png";show Image
G0 Z15.8 F65;
G0 Z10.8 F150;
G4 P0;
M106 S255;light on
G4 P6000;
M106 S0; light off

;LAYER_END

;LAYER_START:216
;currPos:10.85
M6054 "217.png";show Image
G0 Z15.85 F65;
G0 Z10.85 F150;
G4 P0;
M106 S255;light on
G4 P6000;
M106 S0; light off

;LAYER_END

;LAYER_START:217
;currPos:10.9
M6054 "218.png";show Image
G0 Z15.9 F65;
G0 Z10.9 F150;
G4 P0;
M106 S255;light on
G4 P6000;
M106 S0; light off

;LAYER_END

;LAYER_START:218
;currPos:10.95
M6054 "219.png";show Image
G0 Z15.95 F65;
G0 Z10.95 F150;
G4 P0;
M106 S255;light on
G4 P6000;
M106 S0; light off

;LAYER_END

;LAYER_START:219
;currPos:11
M6054 "220.png";show Image
G0 Z16 F65;
G0 Z11 F150;
G4 P0;
M106 S255;light on
G4 P6000;
M106 S0; light off

;LAYER_END

;LAYER_START:220
;currPos:11.05
M6054 "221.png";show Image
G0 Z16.05 F65;
G0 Z11.05 F150;
G4 P0;
M106 S255;light on
G4 P6000;
M106 S0; light off

;LAYER_END

;LAYER_START:221
;currPos:11.1
M6054 "222.png";show Image
G0 Z16.1 F65;
G0 Z11.1 F150;
G4 P0;
M106 S255;light on
G4 P6000;
M106 S0; light off

;LAYER_END

;LAYER_START:222
;currPos:11.15
M6054 "223.png";show Image
G0 Z16.15 F65;
G0 Z11.15 F150;
G4 P0;
M106 S255;light on
G4 P6000;
M106 S0; light off

;LAYER_END

;LAYER_START:223
;currPos:11.2
M6054 "224.png";show Image
G0 Z16.2 F65;
G0 Z11.2 F150;
G4 P0;
M106 S255;light on
G4 P6000;
M106 S0; light off

;LAYER_END

;LAYER_START:224
;currPos:11.25
M6054 "225.png";show Image
G0 Z16.25 F65;
G0 Z11.25 F150;
G4 P0;
M106 S255;light on
G4 P6000;
M106 S0; light off

;LAYER_END

;LAYER_START:225
;currPos:11.3
M6054 "226.png";show Image
G0 Z16.3 F65;
G0 Z11.3 F150;
G4 P0;
M106 S255;light on
G4 P6000;
M106 S0; light off

;LAYER_END

;LAYER_START:226
;currPos:11.35
M6054 "227.png";show Image
G0 Z16.35 F65;
G0 Z11.35 F150;
G4 P0;
M106 S255;light on
G4 P6000;
M106 S0; light off

;LAYER_END

;LAYER_START:227
;currPos:11.4
M6054 "228.png";show Image
G0 Z16.4 F65;
G0 Z11.4 F150;
G4 P0;
M106 S255;light on
G4 P6000;
M106 S0; light off

;LAYER_END

;LAYER_START:228
;currPos:11.45
M6054 "229.png";show Image
G0 Z16.45 F65;
G0 Z11.45 F150;
G4 P0;
M106 S255;light on
G4 P6000;
M106 S0; light off

;LAYER_END

;LAYER_START:229
;currPos:11.5
M6054 "230.png";show Image
G0 Z16.5 F65;
G0 Z11.5 F150;
G4 P0;
M106 S255;light on
G4 P6000;
M106 S0; light off

;LAYER_END

;LAYER_START:230
;currPos:11.55
M6054 "231.png";show Image
G0 Z16.55 F65;
G0 Z11.55 F150;
G4 P0;
M106 S255;light on
G4 P6000;
M106 S0; light off

;LAYER_END

;LAYER_START:231
;currPos:11.6
M6054 "232.png";show Image
G0 Z16.6 F65;
G0 Z11.6 F150;
G4 P0;
M106 S255;light on
G4 P6000;
M106 S0; light off

;LAYER_END

;LAYER_START:232
;currPos:11.65
M6054 "233.png";show Image
G0 Z16.65 F65;
G0 Z11.65 F150;
G4 P0;
M106 S255;light on
G4 P6000;
M106 S0; light off

;LAYER_END

;LAYER_START:233
;currPos:11.7
M6054 "234.png";show Image
G0 Z16.7 F65;
G0 Z11.7 F150;
G4 P0;
M106 S255;light on
G4 P6000;
M106 S0; light off

;LAYER_END

;LAYER_START:234
;currPos:11.75
M6054 "235.png";show Image
G0 Z16.75 F65;
G0 Z11.75 F150;
G4 P0;
M106 S255;light on
G4 P6000;
M106 S0; light off

;LAYER_END

;LAYER_START:235
;currPos:11.8
M6054 "236.png";show Image
G0 Z16.8 F65;
G0 Z11.8 F150;
G4 P0;
M106 S255;light on
G4 P6000;
M106 S0; light off

;LAYER_END

;LAYER_START:236
;currPos:11.85
M6054 "237.png";show Image
G0 Z16.85 F65;
G0 Z11.85 F150;
G4 P0;
M106 S255;light on
G4 P6000;
M106 S0; light off

;LAYER_END

;LAYER_START:237
;currPos:11.9
M6054 "238.png";show Image
G0 Z16.9 F65;
G0 Z11.9 F150;
G4 P0;
M106 S255;light on
G4 P6000;
M106 S0; light off

;LAYER_END

;LAYER_START:238
;currPos:11.95
M6054 "239.png";show Image
G0 Z16.95 F65;
G0 Z11.95 F150;
G4 P0;
M106 S255;light on
G4 P6000;
M106 S0; light off

;LAYER_END

;LAYER_START:239
;currPos:12
M6054 "240.png";show Image
G0 Z17 F65;
G0 Z12 F150;
G4 P0;
M106 S255;light on
G4 P6000;
M106 S0; light off

;LAYER_END

;LAYER_START:240
;currPos:12.05
M6054 "241.png";show Image
G0 Z17.05 F65;
G0 Z12.05 F150;
G4 P0;
M106 S255;light on
G4 P6000;
M106 S0; light off

;LAYER_END

;LAYER_START:241
;currPos:12.1
M6054 "242.png";show Image
G0 Z17.1 F65;
G0 Z12.1 F150;
G4 P0;
M106 S255;light on
G4 P6000;
M106 S0; light off

;LAYER_END

;LAYER_START:242
;currPos:12.15
M6054 "243.png";show Image
G0 Z17.15 F65;
G0 Z12.15 F150;
G4 P0;
M106 S255;light on
G4 P6000;
M106 S0; light off

;LAYER_END

;LAYER_START:243
;currPos:12.2
M6054 "244.png";show Image
G0 Z17.2 F65;
G0 Z12.2 F150;
G4 P0;
M106 S255;light on
G4 P6000;
M106 S0; light off

;LAYER_END

;LAYER_START:244
;currPos:12.25
M6054 "245.png";show Image
G0 Z17.25 F65;
G0 Z12.25 F150;
G4 P0;
M106 S255;light on
G4 P6000;
M106 S0; light off

;LAYER_END

;LAYER_START:245
;currPos:12.3
M6054 "246.png";show Image
G0 Z17.3 F65;
G0 Z12.3 F150;
G4 P0;
M106 S255;light on
G4 P6000;
M106 S0; light off

;LAYER_END

;LAYER_START:246
;currPos:12.35
M6054 "247.png";show Image
G0 Z17.35 F65;
G0 Z12.35 F150;
G4 P0;
M106 S255;light on
G4 P6000;
M106 S0; light off

;LAYER_END

;LAYER_START:247
;currPos:12.4
M6054 "248.png";show Image
G0 Z17.4 F65;
G0 Z12.4 F150;
G4 P0;
M106 S255;light on
G4 P6000;
M106 S0; light off

;LAYER_END

;LAYER_START:248
;currPos:12.45
M6054 "249.png";show Image
G0 Z17.45 F65;
G0 Z12.45 F150;
G4 P0;
M106 S255;light on
G4 P6000;
M106 S0; light off

;LAYER_END

;LAYER_START:249
;currPos:12.5
M6054 "250.png";show Image
G0 Z17.5 F65;
G0 Z12.5 F150;
G4 P0;
M106 S255;light on
G4 P6000;
M106 S0; light off

;LAYER_END

;LAYER_START:250
;currPos:12.55
M6054 "251.png";show Image
G0 Z17.55 F65;
G0 Z12.55 F150;
G4 P0;
M106 S255;light on
G4 P6000;
M106 S0; light off

;LAYER_END

;LAYER_START:251
;currPos:12.6
M6054 "252.png";show Image
G0 Z17.6 F65;
G0 Z12.6 F150;
G4 P0;
M106 S255;light on
G4 P6000;
M106 S0; light off

;LAYER_END

;LAYER_START:252
;currPos:12.65
M6054 "253.png";show Image
G0 Z17.65 F65;
G0 Z12.65 F150;
G4 P0;
M106 S255;light on
G4 P6000;
M106 S0; light off

;LAYER_END

;LAYER_START:253
;currPos:12.7
M6054 "254.png";show Image
G0 Z17.7 F65;
G0 Z12.7 F150;
G4 P0;
M106 S255;light on
G4 P6000;
M106 S0; light off

;LAYER_END

;LAYER_START:254
;currPos:12.75
M6054 "255.png";show Image
G0 Z17.75 F65;
G0 Z12.75 F150;
G4 P0;
M106 S255;light on
G4 P6000;
M106 S0; light off

;LAYER_END

;LAYER_START:255
;currPos:12.8
M6054 "256.png";show Image
G0 Z17.8 F65;
G0 Z12.8 F150;
G4 P0;
M106 S255;light on
G4 P6000;
M106 S0; light off

;LAYER_END

;LAYER_START:256
;currPos:12.85
M6054 "257.png";show Image
G0 Z17.85 F65;
G0 Z12.85 F150;
G4 P0;
M106 S255;light on
G4 P6000;
M106 S0; light off

;LAYER_END

;LAYER_START:257
;currPos:12.9
M6054 "258.png";show Image
G0 Z17.9 F65;
G0 Z12.9 F150;
G4 P0;
M106 S255;light on
G4 P6000;
M106 S0; light off

;LAYER_END

;LAYER_START:258
;currPos:12.95
M6054 "259.png";show Image
G0 Z17.95 F65;
G0 Z12.95 F150;
G4 P0;
M106 S255;light on
G4 P6000;
M106 S0; light off

;LAYER_END

;LAYER_START:259
;currPos:13
M6054 "260.png";show Image
G0 Z18 F65;
G0 Z13 F150;
G4 P0;
M106 S255;light on
G4 P6000;
M106 S0; light off

;LAYER_END

;LAYER_START:260
;currPos:13.05
M6054 "261.png";show Image
G0 Z18.05 F65;
G0 Z13.05 F150;
G4 P0;
M106 S255;light on
G4 P6000;
M106 S0; light off

;LAYER_END

;LAYER_START:261
;currPos:13.1
M6054 "262.png";show Image
G0 Z18.1 F65;
G0 Z13.1 F150;
G4 P0;
M106 S255;light on
G4 P6000;
M106 S0; light off

;LAYER_END

;LAYER_START:262
;currPos:13.15
M6054 "263.png";show Image
G0 Z18.15 F65;
G0 Z13.15 F150;
G4 P0;
M106 S255;light on
G4 P6000;
M106 S0; light off

;LAYER_END

;LAYER_START:263
;currPos:13.2
M6054 "264.png";show Image
G0 Z18.2 F65;
G0 Z13.2 F150;
G4 P0;
M106 S255;light on
G4 P6000;
M106 S0; light off

;LAYER_END

;LAYER_START:264
;currPos:13.25
M6054 "265.png";show Image
G0 Z18.25 F65;
G0 Z13.25 F150;
G4 P0;
M106 S255;light on
G4 P6000;
M106 S0; light off

;LAYER_END

;LAYER_START:265
;currPos:13.3
M6054 "266.png";show Image
G0 Z18.3 F65;
G0 Z13.3 F150;
G4 P0;
M106 S255;light on
G4 P6000;
M106 S0; light off

;LAYER_END

;LAYER_START:266
;currPos:13.35
M6054 "267.png";show Image
G0 Z18.35 F65;
G0 Z13.35 F150;
G4 P0;
M106 S255;light on
G4 P6000;
M106 S0; light off

;LAYER_END

;LAYER_START:267
;currPos:13.4
M6054 "268.png";show Image
G0 Z18.4 F65;
G0 Z13.4 F150;
G4 P0;
M106 S255;light on
G4 P6000;
M106 S0; light off

;LAYER_END

;LAYER_START:268
;currPos:13.45
M6054 "269.png";show Image
G0 Z18.45 F65;
G0 Z13.45 F150;
G4 P0;
M106 S255;light on
G4 P6000;
M106 S0; light off

;LAYER_END

;LAYER_START:269
;currPos:13.5
M6054 "270.png";show Image
G0 Z18.5 F65;
G0 Z13.5 F150;
G4 P0;
M106 S255;light on
G4 P6000;
M106 S0; light off

;LAYER_END

;LAYER_START:270
;currPos:13.55
M6054 "271.png";show Image
G0 Z18.55 F65;
G0 Z13.55 F150;
G4 P0;
M106 S255;light on
G4 P6000;
M106 S0; light off

;LAYER_END

;LAYER_START:271
;currPos:13.6
M6054 "272.png";show Image
G0 Z18.6 F65;
G0 Z13.6 F150;
G4 P0;
M106 S255;light on
G4 P6000;
M106 S0; light off

;LAYER_END

;LAYER_START:272
;currPos:13.65
M6054 "273.png";show Image
G0 Z18.65 F65;
G0 Z13.65 F150;
G4 P0;
M106 S255;light on
G4 P6000;
M106 S0; light off

;LAYER_END

;LAYER_START:273
;currPos:13.7
M6054 "274.png";show Image
G0 Z18.7 F65;
G0 Z13.7 F150;
G4 P0;
M106 S255;light on
G4 P6000;
M106 S0; light off

;LAYER_END

;LAYER_START:274
;currPos:13.75
M6054 "275.png";show Image
G0 Z18.75 F65;
G0 Z13.75 F150;
G4 P0;
M106 S255;light on
G4 P6000;
M106 S0; light off

;LAYER_END

;LAYER_START:275
;currPos:13.8
M6054 "276.png";show Image
G0 Z18.8 F65;
G0 Z13.8 F150;
G4 P0;
M106 S255;light on
G4 P6000;
M106 S0; light off

;LAYER_END

;LAYER_START:276
;currPos:13.85
M6054 "277.png";show Image
G0 Z18.85 F65;
G0 Z13.85 F150;
G4 P0;
M106 S255;light on
G4 P6000;
M106 S0; light off

;LAYER_END

;LAYER_START:277
;currPos:13.9
M6054 "278.png";show Image
G0 Z18.9 F65;
G0 Z13.9 F150;
G4 P0;
M106 S255;light on
G4 P6000;
M106 S0; light off

;LAYER_END

;LAYER_START:278
;currPos:13.95
M6054 "279.png";show Image
G0 Z18.95 F65;
G0 Z13.95 F150;
G4 P0;
M106 S255;light on
G4 P6000;
M106 S0; light off

;LAYER_END

;LAYER_START:279
;currPos:14
M6054 "280.png";show Image
G0 Z19 F65;
G0 Z14 F150;
G4 P0;
M106 S255;light on
G4 P6000;
M106 S0; light off

;LAYER_END

;LAYER_START:280
;currPos:14.05
M6054 "281.png";show Image
G0 Z19.05 F65;
G0 Z14.05 F150;
G4 P0;
M106 S255;light on
G4 P6000;
M106 S0; light off

;LAYER_END

;LAYER_START:281
;currPos:14.1
M6054 "282.png";show Image
G0 Z19.1 F65;
G0 Z14.1 F150;
G4 P0;
M106 S255;light on
G4 P6000;
M106 S0; light off

;LAYER_END

;LAYER_START:282
;currPos:14.15
M6054 "283.png";show Image
G0 Z19.15 F65;
G0 Z14.15 F150;
G4 P0;
M106 S255;light on
G4 P6000;
M106 S0; light off

;LAYER_END

;LAYER_START:283
;currPos:14.2
M6054 "284.png";show Image
G0 Z19.2 F65;
G0 Z14.2 F150;
G4 P0;
M106 S255;light on
G4 P6000;
M106 S0; light off

;LAYER_END

;LAYER_START:284
;currPos:14.25
M6054 "285.png";show Image
G0 Z19.25 F65;
G0 Z14.25 F150;
G4 P0;
M106 S255;light on
G4 P6000;
M106 S0; light off

;LAYER_END

;LAYER_START:285
;currPos:14.3
M6054 "286.png";show Image
G0 Z19.3 F65;
G0 Z14.3 F150;
G4 P0;
M106 S255;light on
G4 P6000;
M106 S0; light off

;LAYER_END

;LAYER_START:286
;currPos:14.35
M6054 "287.png";show Image
G0 Z19.35 F65;
G0 Z14.35 F150;
G4 P0;
M106 S255;light on
G4 P6000;
M106 S0; light off

;LAYER_END

;LAYER_START:287
;currPos:14.4
M6054 "288.png";show Image
G0 Z19.4 F65;
G0 Z14.4 F150;
G4 P0;
M106 S255;light on
G4 P6000;
M106 S0; light off

;LAYER_END

;LAYER_START:288
;currPos:14.45
M6054 "289.png";show Image
G0 Z19.45 F65;
G0 Z14.45 F150;
G4 P0;
M106 S255;light on
G4 P6000;
M106 S0; light off

;LAYER_END

;LAYER_START:289
;currPos:14.5
M6054 "290.png";show Image
G0 Z19.5 F65;
G0 Z14.5 F150;
G4 P0;
M106 S255;light on
G4 P6000;
M106 S0; light off

;LAYER_END

;LAYER_START:290
;currPos:14.55
M6054 "291.png";show Image
G0 Z19.55 F65;
G0 Z14.55 F150;
G4 P0;
M106 S255;light on
G4 P6000;
M106 S0; light off

;LAYER_END

;LAYER_START:291
;currPos:14.6
M6054 "292.png";show Image
G0 Z19.6 F65;
G0 Z14.6 F150;
G4 P0;
M106 S255;light on
G4 P6000;
M106 S0; light off

;LAYER_END

;LAYER_START:292
;currPos:14.65
M6054 "293.png";show Image
G0 Z19.65 F65;
G0 Z14.65 F150;
G4 P0;
M106 S255;light on
G4 P6000;
M106 S0; light off

;LAYER_END

;LAYER_START:293
;currPos:14.7
M6054 "294.png";show Image
G0 Z19.7 F65;
G0 Z14.7 F150;
G4 P0;
M106 S255;light on
G4 P6000;
M106 S0; light off

;LAYER_END

;LAYER_START:294
;currPos:14.75
M6054 "295.png";show Image
G0 Z19.75 F65;
G0 Z14.75 F150;
G4 P0;
M106 S255;light on
G4 P6000;
M106 S0; light off

;LAYER_END

;LAYER_START:295
;currPos:14.8
M6054 "296.png";show Image
G0 Z19.8 F65;
G0 Z14.8 F150;
G4 P0;
M106 S255;light on
G4 P6000;
M106 S0; light off

;LAYER_END

;LAYER_START:296
;currPos:14.85
M6054 "297.png";show Image
G0 Z19.85 F65;
G0 Z14.85 F150;
G4 P0;
M106 S255;light on
G4 P6000;
M106 S0; light off

;LAYER_END

;LAYER_START:297
;currPos:14.9
M6054 "298.png";show Image
G0 Z19.9 F65;
G0 Z14.9 F150;
G4 P0;
M106 S255;light on
G4 P6000;
M106 S0; light off

;LAYER_END

;LAYER_START:298
;currPos:14.95
M6054 "299.png";show Image
G0 Z19.95 F65;
G0 Z14.95 F150;
G4 P0;
M106 S255;light on
G4 P6000;
M106 S0; light off

;LAYER_END

;LAYER_START:299
;currPos:15
M6054 "300.png";show Image
G0 Z20 F65;
G0 Z15 F150;
G4 P0;
M106 S255;light on
G4 P6000;
M106 S0; light off

;LAYER_END

;LAYER_START:300
;currPos:15.05
M6054 "301.png";show Image
G0 Z20.05 F65;
G0 Z15.05 F150;
G4 P0;
M106 S255;light on
G4 P6000;
M106 S0; light off

;LAYER_END

;LAYER_START:301
;currPos:15.1
M6054 "302.png";show Image
G0 Z20.1 F65;
G0 Z15.1 F150;
G4 P0;
M106 S255;light on
G4 P6000;
M106 S0; light off

;LAYER_END

;LAYER_START:302
;currPos:15.15
M6054 "303.png";show Image
G0 Z20.15 F65;
G0 Z15.15 F150;
G4 P0;
M106 S255;light on
G4 P6000;
M106 S0; light off

;LAYER_END

;LAYER_START:303
;currPos:15.2
M6054 "304.png";show Image
G0 Z20.2 F65;
G0 Z15.2 F150;
G4 P0;
M106 S255;light on
G4 P6000;
M106 S0; light off

;LAYER_END

;LAYER_START:304
;currPos:15.25
M6054 "305.png";show Image
G0 Z20.25 F65;
G0 Z15.25 F150;
G4 P0;
M106 S255;light on
G4 P6000;
M106 S0; light off

;LAYER_END

;LAYER_START:305
;currPos:15.3
M6054 "306.png";show Image
G0 Z20.3 F65;
G0 Z15.3 F150;
G4 P0;
M106 S255;light on
G4 P6000;
M106 S0; light off

;LAYER_END

;LAYER_START:306
;currPos:15.35
M6054 "307.png";show Image
G0 Z20.35 F65;
G0 Z15.35 F150;
G4 P0;
M106 S255;light on
G4 P6000;
M106 S0; light off

;LAYER_END

;LAYER_START:307
;currPos:15.4
M6054 "308.png";show Image
G0 Z20.4 F65;
G0 Z15.4 F150;
G4 P0;
M106 S255;light on
G4 P6000;
M106 S0; light off

;LAYER_END

;LAYER_START:308
;currPos:15.45
M6054 "309.png";show Image
G0 Z20.45 F65;
G0 Z15.45 F150;
G4 P0;
M106 S255;light on
G4 P6000;
M106 S0; light off

;LAYER_END

;LAYER_START:309
;currPos:15.5
M6054 "310.png";show Image
G0 Z20.5 F65;
G0 Z15.5 F150;
G4 P0;
M106 S255;light on
G4 P6000;
M106 S0; light off

;LAYER_END

;LAYER_START:310
;currPos:15.55
M6054 "311.png";show Image
G0 Z20.55 F65;
G0 Z15.55 F150;
G4 P0;
M106 S255;light on
G4 P6000;
M106 S0; light off

;LAYER_END

;LAYER_START:311
;currPos:15.6
M6054 "312.png";show Image
G0 Z20.6 F65;
G0 Z15.6 F150;
G4 P0;
M106 S255;light on
G4 P6000;
M106 S0; light off

;LAYER_END

;LAYER_START:312
;currPos:15.65
M6054 "313.png";show Image
G0 Z20.65 F65;
G0 Z15.65 F150;
G4 P0;
M106 S255;light on
G4 P6000;
M106 S0; light off

;LAYER_END

;LAYER_START:313
;currPos:15.7
M6054 "314.png";show Image
G0 Z20.7 F65;
G0 Z15.7 F150;
G4 P0;
M106 S255;light on
G4 P6000;
M106 S0; light off

;LAYER_END

;LAYER_START:314
;currPos:15.75
M6054 "315.png";show Image
G0 Z20.75 F65;
G0 Z15.75 F150;
G4 P0;
M106 S255;light on
G4 P6000;
M106 S0; light off

;LAYER_END

;LAYER_START:315
;currPos:15.8
M6054 "316.png";show Image
G0 Z20.8 F65;
G0 Z15.8 F150;
G4 P0;
M106 S255;light on
G4 P6000;
M106 S0; light off

;LAYER_END

;LAYER_START:316
;currPos:15.85
M6054 "317.png";show Image
G0 Z20.85 F65;
G0 Z15.85 F150;
G4 P0;
M106 S255;light on
G4 P6000;
M106 S0; light off

;LAYER_END

;LAYER_START:317
;currPos:15.9
M6054 "318.png";show Image
G0 Z20.9 F65;
G0 Z15.9 F150;
G4 P0;
M106 S255;light on
G4 P6000;
M106 S0; light off

;LAYER_END

;LAYER_START:318
;currPos:15.95
M6054 "319.png";show Image
G0 Z20.95 F65;
G0 Z15.95 F150;
G4 P0;
M106 S255;light on
G4 P6000;
M106 S0; light off

;LAYER_END

;LAYER_START:319
;currPos:16
M6054 "320.png";show Image
G0 Z21 F65;
G0 Z16 F150;
G4 P0;
M106 S255;light on
G4 P6000;
M106 S0; light off

;LAYER_END

;LAYER_START:320
;currPos:16.05
M6054 "321.png";show Image
G0 Z21.05 F65;
G0 Z16.05 F150;
G4 P0;
M106 S255;light on
G4 P6000;
M106 S0; light off

;LAYER_END

;LAYER_START:321
;currPos:16.1
M6054 "322.png";show Image
G0 Z21.1 F65;
G0 Z16.1 F150;
G4 P0;
M106 S255;light on
G4 P6000;
M106 S0; light off

;LAYER_END

;LAYER_START:322
;currPos:16.15
M6054 "323.png";show Image
G0 Z21.15 F65;
G0 Z16.15 F150;
G4 P0;
M106 S255;light on
G4 P6000;
M106 S0; light off

;LAYER_END

;LAYER_START:323
;currPos:16.2
M6054 "324.png";show Image
G0 Z21.2 F65;
G0 Z16.2 F150;
G4 P0;
M106 S255;light on
G4 P6000;
M106 S0; light off

;LAYER_END

;LAYER_START:324
;currPos:16.25
M6054 "325.png";show Image
G0 Z21.25 F65;
G0 Z16.25 F150;
G4 P0;
M106 S255;light on
G4 P6000;
M106 S0; light off

;LAYER_END

;LAYER_START:325
;currPos:16.3
M6054 "326.png";show Image
G0 Z21.3 F65;
G0 Z16.3 F150;
G4 P0;
M106 S255;light on
G4 P6000;
M106 S0; light off

;LAYER_END

;LAYER_START:326
;currPos:16.35
M6054 "327.png";show Image
G0 Z21.35 F65;
G0 Z16.35 F150;
G4 P0;
M106 S255;light on
G4 P6000;
M106 S0; light off

;LAYER_END

;LAYER_START:327
;currPos:16.4
M6054 "328.png";show Image
G0 Z21.4 F65;
G0 Z16.4 F150;
G4 P0;
M106 S255;light on
G4 P6000;
M106 S0; light off

;LAYER_END

;LAYER_START:328
;currPos:16.45
M6054 "329.png";show Image
G0 Z21.45 F65;
G0 Z16.45 F150;
G4 P0;
M106 S255;light on
G4 P6000;
M106 S0; light off

;LAYER_END

;LAYER_START:329
;currPos:16.5
M6054 "330.png";show Image
G0 Z21.5 F65;
G0 Z16.5 F150;
G4 P0;
M106 S255;light on
G4 P6000;
M106 S0; light off

;LAYER_END

;LAYER_START:330
;currPos:16.55
M6054 "331.png";show Image
G0 Z21.55 F65;
G0 Z16.55 F150;
G4 P0;
M106 S255;light on
G4 P6000;
M106 S0; light off

;LAYER_END

;LAYER_START:331
;currPos:16.6
M6054 "332.png";show Image
G0 Z21.6 F65;
G0 Z16.6 F150;
G4 P0;
M106 S255;light on
G4 P6000;
M106 S0; light off

;LAYER_END

;LAYER_START:332
;currPos:16.65
M6054 "333.png";show Image
G0 Z21.65 F65;
G0 Z16.65 F150;
G4 P0;
M106 S255;light on
G4 P6000;
M106 S0; light off

;LAYER_END

;LAYER_START:333
;currPos:16.7
M6054 "334.png";show Image
G0 Z21.7 F65;
G0 Z16.7 F150;
G4 P0;
M106 S255;light on
G4 P6000;
M106 S0; light off

;LAYER_END

;LAYER_START:334
;currPos:16.75
M6054 "335.png";show Image
G0 Z21.75 F65;
G0 Z16.75 F150;
G4 P0;
M106 S255;light on
G4 P6000;
M106 S0; light off

;LAYER_END

;LAYER_START:335
;currPos:16.8
M6054 "336.png";show Image
G0 Z21.8 F65;
G0 Z16.8 F150;
G4 P0;
M106 S255;light on
G4 P6000;
M106 S0; light off

;LAYER_END

;LAYER_START:336
;currPos:16.85
M6054 "337.png";show Image
G0 Z21.85 F65;
G0 Z16.85 F150;
G4 P0;
M106 S255;light on
G4 P6000;
M106 S0; light off

;LAYER_END

;LAYER_START:337
;currPos:16.9
M6054 "338.png";show Image
G0 Z21.9 F65;
G0 Z16.9 F150;
G4 P0;
M106 S255;light on
G4 P6000;
M106 S0; light off

;LAYER_END

;LAYER_START:338
;currPos:16.95
M6054 "339.png";show Image
G0 Z21.95 F65;
G0 Z16.95 F150;
G4 P0;
M106 S255;light on
G4 P6000;
M106 S0; light off

;LAYER_END

;LAYER_START:339
;currPos:17
M6054 "340.png";show Image
G0 Z22 F65;
G0 Z17 F150;
G4 P0;
M106 S255;light on
G4 P6000;
M106 S0; light off

;LAYER_END

;LAYER_START:340
;currPos:17.05
M6054 "341.png";show Image
G0 Z22.05 F65;
G0 Z17.05 F150;
G4 P0;
M106 S255;light on
G4 P6000;
M106 S0; light off

;LAYER_END

;LAYER_START:341
;currPos:17.1
M6054 "342.png";show Image
G0 Z22.1 F65;
G0 Z17.1 F150;
G4 P0;
M106 S255;light on
G4 P6000;
M106 S0; light off

;LAYER_END

;LAYER_START:342
;currPos:17.15
M6054 "343.png";show Image
G0 Z22.15 F65;
G0 Z17.15 F150;
G4 P0;
M106 S255;light on
G4 P6000;
M106 S0; light off

;LAYER_END

;LAYER_START:343
;currPos:17.2
M6054 "344.png";show Image
G0 Z22.2 F65;
G0 Z17.2 F150;
G4 P0;
M106 S255;light on
G4 P6000;
M106 S0; light off

;LAYER_END

;LAYER_START:344
;currPos:17.25
M6054 "345.png";show Image
G0 Z22.25 F65;
G0 Z17.25 F150;
G4 P0;
M106 S255;light on
G4 P6000;
M106 S0; light off

;LAYER_END

;LAYER_START:345
;currPos:17.3
M6054 "346.png";show Image
G0 Z22.3 F65;
G0 Z17.3 F150;
G4 P0;
M106 S255;light on
G4 P6000;
M106 S0; light off

;LAYER_END

;LAYER_START:346
;currPos:17.35
M6054 "347.png";show Image
G0 Z22.35 F65;
G0 Z17.35 F150;
G4 P0;
M106 S255;light on
G4 P6000;
M106 S0; light off

;LAYER_END

;LAYER_START:347
;currPos:17.4
M6054 "348.png";show Image
G0 Z22.4 F65;
G0 Z17.4 F150;
G4 P0;
M106 S255;light on
G4 P6000;
M106 S0; light off

;LAYER_END

;LAYER_START:348
;currPos:17.45
M6054 "349.png";show Image
G0 Z22.45 F65;
G0 Z17.45 F150;
G4 P0;
M106 S255;light on
G4 P6000;
M106 S0; light off

;LAYER_END

;LAYER_START:349
;currPos:17.5
M6054 "350.png";show Image
G0 Z22.5 F65;
G0 Z17.5 F150;
G4 P0;
M106 S255;light on
G4 P6000;
M106 S0; light off

;LAYER_END

;LAYER_START:350
;currPos:17.55
M6054 "351.png";show Image
G0 Z22.55 F65;
G0 Z17.55 F150;
G4 P0;
M106 S255;light on
G4 P6000;
M106 S0; light off

;LAYER_END

;LAYER_START:351
;currPos:17.6
M6054 "352.png";show Image
G0 Z22.6 F65;
G0 Z17.6 F150;
G4 P0;
M106 S255;light on
G4 P6000;
M106 S0; light off

;LAYER_END

;LAYER_START:352
;currPos:17.65
M6054 "353.png";show Image
G0 Z22.65 F65;
G0 Z17.65 F150;
G4 P0;
M106 S255;light on
G4 P6000;
M106 S0; light off

;LAYER_END

;LAYER_START:353
;currPos:17.7
M6054 "354.png";show Image
G0 Z22.7 F65;
G0 Z17.7 F150;
G4 P0;
M106 S255;light on
G4 P6000;
M106 S0; light off

;LAYER_END

;LAYER_START:354
;currPos:17.75
M6054 "355.png";show Image
G0 Z22.75 F65;
G0 Z17.75 F150;
G4 P0;
M106 S255;light on
G4 P6000;
M106 S0; light off

;LAYER_END

;LAYER_START:355
;currPos:17.8
M6054 "356.png";show Image
G0 Z22.8 F65;
G0 Z17.8 F150;
G4 P0;
M106 S255;light on
G4 P6000;
M106 S0; light off

;LAYER_END

;LAYER_START:356
;currPos:17.85
M6054 "357.png";show Image
G0 Z22.85 F65;
G0 Z17.85 F150;
G4 P0;
M106 S255;light on
G4 P6000;
M106 S0; light off

;LAYER_END

;LAYER_START:357
;currPos:17.9
M6054 "358.png";show Image
G0 Z22.9 F65;
G0 Z17.9 F150;
G4 P0;
M106 S255;light on
G4 P6000;
M106 S0; light off

;LAYER_END

;LAYER_START:358
;currPos:17.95
M6054 "359.png";show Image
G0 Z22.95 F65;
G0 Z17.95 F150;
G4 P0;
M106 S255;light on
G4 P6000;
M106 S0; light off

;LAYER_END

;LAYER_START:359
;currPos:18
M6054 "360.png";show Image
G0 Z23 F65;
G0 Z18 F150;
G4 P0;
M106 S255;light on
G4 P6000;
M106 S0; light off

;LAYER_END

;LAYER_START:360
;currPos:18.05
M6054 "361.png";show Image
G0 Z23.05 F65;
G0 Z18.05 F150;
G4 P0;
M106 S255;light on
G4 P6000;
M106 S0; light off

;LAYER_END

;LAYER_START:361
;currPos:18.1
M6054 "362.png";show Image
G0 Z23.1 F65;
G0 Z18.1 F150;
G4 P0;
M106 S255;light on
G4 P6000;
M106 S0; light off

;LAYER_END

;LAYER_START:362
;currPos:18.15
M6054 "363.png";show Image
G0 Z23.15 F65;
G0 Z18.15 F150;
G4 P0;
M106 S255;light on
G4 P6000;
M106 S0; light off

;LAYER_END

;LAYER_START:363
;currPos:18.2
M6054 "364.png";show Image
G0 Z23.2 F65;
G0 Z18.2 F150;
G4 P0;
M106 S255;light on
G4 P6000;
M106 S0; light off

;LAYER_END

;LAYER_START:364
;currPos:18.25
M6054 "365.png";show Image
G0 Z23.25 F65;
G0 Z18.25 F150;
G4 P0;
M106 S255;light on
G4 P6000;
M106 S0; light off

;LAYER_END

;LAYER_START:365
;currPos:18.3
M6054 "366.png";show Image
G0 Z23.3 F65;
G0 Z18.3 F150;
G4 P0;
M106 S255;light on
G4 P6000;
M106 S0; light off

;LAYER_END

;LAYER_START:366
;currPos:18.35
M6054 "367.png";show Image
G0 Z23.35 F65;
G0 Z18.35 F150;
G4 P0;
M106 S255;light on
G4 P6000;
M106 S0; light off

;LAYER_END

;LAYER_START:367
;currPos:18.4
M6054 "368.png";show Image
G0 Z23.4 F65;
G0 Z18.4 F150;
G4 P0;
M106 S255;light on
G4 P6000;
M106 S0; light off

;LAYER_END

;LAYER_START:368
;currPos:18.45
M6054 "369.png";show Image
G0 Z23.45 F65;
G0 Z18.45 F150;
G4 P0;
M106 S255;light on
G4 P6000;
M106 S0; light off

;LAYER_END

;LAYER_START:369
;currPos:18.5
M6054 "370.png";show Image
G0 Z23.5 F65;
G0 Z18.5 F150;
G4 P0;
M106 S255;light on
G4 P6000;
M106 S0; light off

;LAYER_END

;LAYER_START:370
;currPos:18.55
M6054 "371.png";show Image
G0 Z23.55 F65;
G0 Z18.55 F150;
G4 P0;
M106 S255;light on
G4 P6000;
M106 S0; light off

;LAYER_END

;LAYER_START:371
;currPos:18.6
M6054 "372.png";show Image
G0 Z23.6 F65;
G0 Z18.6 F150;
G4 P0;
M106 S255;light on
G4 P6000;
M106 S0; light off

;LAYER_END

;LAYER_START:372
;currPos:18.65
M6054 "373.png";show Image
G0 Z23.65 F65;
G0 Z18.65 F150;
G4 P0;
M106 S255;light on
G4 P6000;
M106 S0; light off

;LAYER_END

;LAYER_START:373
;currPos:18.7
M6054 "374.png";show Image
G0 Z23.7 F65;
G0 Z18.7 F150;
G4 P0;
M106 S255;light on
G4 P6000;
M106 S0; light off

;LAYER_END

;LAYER_START:374
;currPos:18.75
M6054 "375.png";show Image
G0 Z23.75 F65;
G0 Z18.75 F150;
G4 P0;
M106 S255;light on
G4 P6000;
M106 S0; light off

;LAYER_END

;LAYER_START:375
;currPos:18.8
M6054 "376.png";show Image
G0 Z23.8 F65;
G0 Z18.8 F150;
G4 P0;
M106 S255;light on
G4 P6000;
M106 S0; light off

;LAYER_END

;LAYER_START:376
;currPos:18.85
M6054 "377.png";show Image
G0 Z23.85 F65;
G0 Z18.85 F150;
G4 P0;
M106 S255;light on
G4 P6000;
M106 S0; light off

;LAYER_END

;LAYER_START:377
;currPos:18.9
M6054 "378.png";show Image
G0 Z23.9 F65;
G0 Z18.9 F150;
G4 P0;
M106 S255;light on
G4 P6000;
M106 S0; light off

;LAYER_END

;LAYER_START:378
;currPos:18.95
M6054 "379.png";show Image
G0 Z23.95 F65;
G0 Z18.95 F150;
G4 P0;
M106 S255;light on
G4 P6000;
M106 S0; light off

;LAYER_END

;LAYER_START:379
;currPos:19
M6054 "380.png";show Image
G0 Z24 F65;
G0 Z19 F150;
G4 P0;
M106 S255;light on
G4 P6000;
M106 S0; light off

;LAYER_END

;LAYER_START:380
;currPos:19.05
M6054 "381.png";show Image
G0 Z24.05 F65;
G0 Z19.05 F150;
G4 P0;
M106 S255;light on
G4 P6000;
M106 S0; light off

;LAYER_END

;LAYER_START:381
;currPos:19.1
M6054 "382.png";show Image
G0 Z24.1 F65;
G0 Z19.1 F150;
G4 P0;
M106 S255;light on
G4 P6000;
M106 S0; light off

;LAYER_END

;LAYER_START:382
;currPos:19.15
M6054 "383.png";show Image
G0 Z24.15 F65;
G0 Z19.15 F150;
G4 P0;
M106 S255;light on
G4 P6000;
M106 S0; light off

;LAYER_END

;LAYER_START:383
;currPos:19.2
M6054 "384.png";show Image
G0 Z24.2 F65;
G0 Z19.2 F150;
G4 P0;
M106 S255;light on
G4 P6000;
M106 S0; light off

;LAYER_END

;LAYER_START:384
;currPos:19.25
M6054 "385.png";show Image
G0 Z24.25 F65;
G0 Z19.25 F150;
G4 P0;
M106 S255;light on
G4 P6000;
M106 S0; light off

;LAYER_END

;LAYER_START:385
;currPos:19.3
M6054 "386.png";show Image
G0 Z24.3 F65;
G0 Z19.3 F150;
G4 P0;
M106 S255;light on
G4 P6000;
M106 S0; light off

;LAYER_END

;LAYER_START:386
;currPos:19.35
M6054 "387.png";show Image
G0 Z24.35 F65;
G0 Z19.35 F150;
G4 P0;
M106 S255;light on
G4 P6000;
M106 S0; light off

;LAYER_END

;LAYER_START:387
;currPos:19.4
M6054 "388.png";show Image
G0 Z24.4 F65;
G0 Z19.4 F150;
G4 P0;
M106 S255;light on
G4 P6000;
M106 S0; light off

;LAYER_END

;LAYER_START:388
;currPos:19.45
M6054 "389.png";show Image
G0 Z24.45 F65;
G0 Z19.45 F150;
G4 P0;
M106 S255;light on
G4 P6000;
M106 S0; light off

;LAYER_END

;LAYER_START:389
;currPos:19.5
M6054 "390.png";show Image
G0 Z24.5 F65;
G0 Z19.5 F150;
G4 P0;
M106 S255;light on
G4 P6000;
M106 S0; light off

;LAYER_END

;LAYER_START:390
;currPos:19.55
M6054 "391.png";show Image
G0 Z24.55 F65;
G0 Z19.55 F150;
G4 P0;
M106 S255;light on
G4 P6000;
M106 S0; light off

;LAYER_END

;LAYER_START:391
;currPos:19.6
M6054 "392.png";show Image
G0 Z24.6 F65;
G0 Z19.6 F150;
G4 P0;
M106 S255;light on
G4 P6000;
M106 S0; light off

;LAYER_END

;LAYER_START:392
;currPos:19.65
M6054 "393.png";show Image
G0 Z24.65 F65;
G0 Z19.65 F150;
G4 P0;
M106 S255;light on
G4 P6000;
M106 S0; light off

;LAYER_END

;LAYER_START:393
;currPos:19.7
M6054 "394.png";show Image
G0 Z24.7 F65;
G0 Z19.7 F150;
G4 P0;
M106 S255;light on
G4 P6000;
M106 S0; light off

;LAYER_END

;LAYER_START:394
;currPos:19.75
M6054 "395.png";show Image
G0 Z24.75 F65;
G0 Z19.75 F150;
G4 P0;
M106 S255;light on
G4 P6000;
M106 S0; light off

;LAYER_END

;LAYER_START:395
;currPos:19.8
M6054 "396.png";show Image
G0 Z24.8 F65;
G0 Z19.8 F150;
G4 P0;
M106 S255;light on
G4 P6000;
M106 S0; light off

;LAYER_END

;LAYER_START:396
;currPos:19.85
M6054 "397.png";show Image
G0 Z24.85 F65;
G0 Z19.85 F150;
G4 P0;
M106 S255;light on
G4 P6000;
M106 S0; light off

;LAYER_END

;LAYER_START:397
;currPos:19.9
M6054 "398.png";show Image
G0 Z24.9 F65;
G0 Z19.9 F150;
G4 P0;
M106 S255;light on
G4 P6000;
M106 S0; light off

;LAYER_END

;LAYER_START:398
;currPos:19.95
M6054 "399.png";show Image
G0 Z24.95 F65;
G0 Z19.95 F150;
G4 P0;
M106 S255;light on
G4 P6000;
M106 S0; light off

;LAYER_END

;LAYER_START:399
;currPos:20
M6054 "400.png";show Image
G0 Z25 F65;
G0 Z20 F150;
G4 P0;
M106 S255;light on
G4 P6000;
M106 S0; light off

;LAYER_END

;END_GCODE_BEGIN
M106 S0;
G1 Z150 F25;
M18;

;END_GCODE_END
